src/twitter.svg

<svg viewBox="0 0 24 24" fill="none" xmlns="http://www.w3.org/2000/svg">
<path d="M12 1C5.92525 1 1 5.92525 1 12C1 18.0748 5.92525 23 12 23C18.0748 23 23 18.0748 23 12C23 5.92525 18.0748 1 12 1ZM17.5605 9.84125C17.7283 13.5446 14.9663 17.6732 10.0768 17.6732C8.59 17.6732 7.20675 17.2369 6.04167 16.4898C7.43867 16.6548 8.83292 16.2662 9.93933 15.3999C8.788 15.3788 7.81542 14.6171 7.479 13.5712C7.89242 13.65 8.29942 13.6271 8.66883 13.5263C7.40292 13.2714 6.52842 12.1311 6.55683 10.911C6.9125 11.1081 7.31767 11.2263 7.74942 11.2401C6.577 10.4563 6.24517 8.90808 6.9345 7.72467C8.2325 9.31783 10.1731 10.3656 12.3612 10.4756C11.9771 8.82925 13.2265 7.2425 14.9269 7.2425C15.6832 7.2425 16.3679 7.56242 16.8482 8.07392C17.4477 7.95658 18.0124 7.73658 18.5203 7.435C18.3232 8.05008 17.9061 8.56525 17.3625 8.89158C17.8951 8.82742 18.4029 8.68625 18.8741 8.47633C18.5221 9.00617 18.0766 9.47 17.5605 9.84125V9.84125Z" fill="#1DA1F2"/>
</svg>

<svg xmlns="http://www.w3.org/2000/svg" fill="none" viewBox="0 0 24 24">
  <rect width="22" height="22" x="1" y="1" fill="#1DA1F2" rx="6"/>
  <path fill="#fff" d="M17.56 9.841c.168 3.704-2.594 7.832-7.483 7.832a7.45 7.45 0 0 1-4.035-1.183 5.297 5.297 0 0 0 3.897-1.09 2.639 2.639 0 0 1-2.46-1.829c.413.079.82.056 1.19-.045-1.266-.255-2.14-1.395-2.112-2.615.355.197.76.315 1.192.33a2.637 2.637 0 0 1-.815-3.516 7.474 7.474 0 0 0 5.427 2.75 2.636 2.636 0 0 1 4.487-2.401 5.251 5.251 0 0 0 1.672-.639 2.643 2.643 0 0 1-1.157 1.457 5.253 5.253 0 0 0 1.511-.416c-.352.53-.797.994-1.313 1.365Z"/>
</svg>
